; generated by QIDISlicer 1.2.1 on 2025-10-26 at 14:41:46 UTC


;
;
; 

; external perimeters extrusion width = 0.22mm
; perimeters extrusion width = 0.22mm
; infill extrusion width = 0.22mm
; solid infill extrusion width = 0.22mm
; top infill extrusion width = 0.22mm
; first layer extrusion width = 0.25mm

;TYPE:Custom
EXCLUDE_OBJECT_DEFINE NAME=stencil_CompomentTester_stl CENTER=87.503,90.012 POLYGON=[[113.105,54.975],[137.500,55.025],[137.500,125.025],[37.500,125.025],[37.500,55.025]]
M73 P0 R48
PRINT_START
G28
M141 S0
G0 Z50 F600
M190 S60
G28 Z
G29; mesh bed leveling, comment this code to close it
G0 X0 Y0 Z50 F6000
M73 P0 R47
M109 S210
M106 P3 S255
M83
G4 P3000
T0



G0 X32.5 Y49.9755 Z5 F6000
G0 Z0.1 F600
G1 E3 F1800
G1 X117.5 E0.85 F3000
G1 Y51.9755 E0.02
G1 X32.5 E0.85
G1 Y134.975 E0.83
G1 X34.5 E0.02
G1 Y52.9755 E0.82
G1 X44.5 E-0.1
G1 E0.1 F3000
G21 ; set units to millimeters
G90 ; use absolute coordinates
M83 ; use relative distances for extrusion
; Filament gcode
M900 K0.031 T0.03
M107
M106 P2 S0
M106 P3 S255
;LAYER_CHANGE
;Z:0.1
;HEIGHT:0.1
G1 E-.4 F1800
G1 X32.5 Y49.975 Z0 F30000
G1 X39.736 Y52.403 Z.4 F11819.708
G1 X97.159 Y71.668 Z.4 F30000
EXCLUDE_OBJECT_START NAME='stencil_CompomentTester_stl'
G1 X97.159 Y71.668
G1 Z.1 F600
G1 E.4 F1800
M204 S500
;TYPE:Perimeter
;WIDTH:0.25
G1 F2400
G1 X97.235 Y71.719 E.00085
G1 X97.733 Y71.739 E.00464
G1 X97.91 Y71.702 E.00168
G1 X97.96 Y71.668 E.00056
G1 X98.036 Y71.719 E.00085
G1 X98.531 Y71.739 E.00461
G1 X98.593 Y71.726 E.00059
G1 X98.58 Y71.788 E.00059
G1 X98.6 Y72.283 E.00461
G1 X98.651 Y72.359 E.00085
G1 X98.618 Y72.409 E.00056
G1 X98.58 Y72.587 E.00169
G1 X98.6 Y73.079 E.00459
G1 X98.651 Y73.158 E.00088
G1 X98.617 Y73.209 E.00057
G1 X98.58 Y73.388 E.0017
G1 X98.6 Y73.883 E.00461
G1 X98.651 Y73.959 E.00085
G1 X98.618 Y74.009 E.00056
G1 X98.58 Y74.185 E.00168
G1 X98.6 Y74.683 E.00464
G1 X98.651 Y74.758 E.00084
G1 X98.617 Y74.809 E.00057
G1 X98.581 Y74.988 E.0017
G1 X98.6 Y75.482 E.0046
G1 X98.651 Y75.558 E.00085
G1 X98.617 Y75.609 E.00057
G1 X98.581 Y75.789 E.00171
G1 X98.6 Y76.283 E.0046
G1 X98.652 Y76.359 E.00086
G1 X98.617 Y76.412 E.00059
G1 X98.58 Y76.586 E.00166
G1 X98.6 Y77.079 E.00459
G1 X98.652 Y77.159 E.00089
G1 X98.617 Y77.213 E.0006
G1 X98.58 Y77.387 E.00166
G1 X98.597 Y77.794 E.00379
G1 X98.188 Y77.779 E.00381
G1 X98.01 Y77.815 E.00169
G1 X97.96 Y77.849 E.00056
G1 X97.885 Y77.798 E.00084
G1 X97.39 Y77.779 E.00461
G1 X97.21 Y77.814 E.00171
G1 X97.159 Y77.849 E.00058
G1 X97.081 Y77.798 E.00087
G1 X96.589 Y77.779 E.00458
G1 X96.411 Y77.815 E.00169
G1 X96.36 Y77.849 E.00057
G1 X96.285 Y77.798 E.00084
G1 X95.791 Y77.779 E.0046
G1 X95.61 Y77.814 E.00172
G1 X95.559 Y77.849 E.00058
G1 X95.485 Y77.798 E.00084
G1 X94.989 Y77.779 E.00462
G1 X94.814 Y77.814 E.00166
G1 X94.761 Y77.849 E.00059
G1 X94.686 Y77.798 E.00084
G1 X94.191 Y77.779 E.00461
G1 X94.011 Y77.814 E.00171
G1 X93.96 Y77.849 E.00058
G1 X93.885 Y77.798 E.00084
G1 X93.391 Y77.779 E.0046
G1 X93.21 Y77.814 E.00172
G1 X93.16 Y77.848 E.00056
G1 X93.096 Y77.805 E.00072
G1 X92.856 Y77.779 E.00225
G1 X92.525 Y77.794 E.00309
G1 X92.54 Y77.388 E.00378
G1 X92.505 Y77.213 E.00166
G1 X92.469 Y77.159 E.0006
G1 X92.522 Y77.08 E.00089
G1 X92.54 Y76.587 E.00459
G1 X92.505 Y76.412 E.00166
G1 X92.47 Y76.359 E.00059
G1 X92.505 Y76.308 E.00058
G1 X92.54 Y76.128 E.00171
G1 X92.521 Y75.634 E.0046
G1 X92.47 Y75.558 E.00085
G1 X92.521 Y75.483 E.00084
G1 X92.54 Y74.989 E.0046
G1 X92.505 Y74.809 E.00171
M73 P1 R47
G1 X92.471 Y74.758 E.00057
G1 X92.522 Y74.683 E.00084
G1 X92.54 Y74.187 E.00462
G1 X92.504 Y74.009 E.00169
G1 X92.47 Y73.959 E.00056
G1 X92.521 Y73.884 E.00084
G1 X92.54 Y73.389 E.00461
G1 X92.505 Y73.209 E.00171
G1 X92.47 Y73.158 E.00058
G1 X92.522 Y73.08 E.00087
G1 X92.54 Y72.588 E.00458
G1 X92.505 Y72.41 E.00169
G1 X92.47 Y72.359 E.00058
G1 X92.521 Y72.284 E.00084
G1 X92.54 Y71.79 E.0046
G1 X92.527 Y71.723 E.00064
G1 X92.931 Y71.739 E.00376
G1 X93.109 Y71.702 E.00169
G1 X93.16 Y71.668 E.00057
G1 X93.235 Y71.719 E.00084
G1 X93.733 Y71.739 E.00464
G1 X93.91 Y71.701 E.00169
G1 X93.96 Y71.668 E.00056
G1 X94.036 Y71.719 E.00085
G1 X94.53 Y71.739 E.0046
G1 X94.71 Y71.702 E.00171
G1 X94.761 Y71.668 E.00057
G1 X94.84 Y71.719 E.00088
G1 X95.332 Y71.739 E.00459
G1 X95.51 Y71.702 E.00169
G1 X95.559 Y71.668 E.00056
G1 X95.635 Y71.719 E.00085
G1 X96.13 Y71.739 E.00461
G1 X96.309 Y71.702 E.0017
G1 X96.36 Y71.668 E.00057
G1 X96.436 Y71.719 E.00085
G1 X96.932 Y71.739 E.00462
G1 X97.106 Y71.702 E.00166
G1 X97.134 Y71.684 E.00031
M204 S10000
;WIPE_START
G1 F24000
G1 X97.159 Y71.668 E-.00564
G1 X97.235 Y71.719 E-.01713
G1 X97.733 Y71.739 E-.08902
G1 X97.91 Y71.702 E-.02425
G1 X97.96 Y71.668 E-.00738
G1 X98.036 Y71.719 E-.01083
G1 X98.531 Y71.739 E-.05592
G1 X98.593 Y71.726 E-.00538
G1 X98.58 Y71.788 E-.00521
G1 X98.597 Y72.213 E-.15925
;WIPE_END
G1 E-.01999 F1800
G1 X95.906 Y79.355 Z.5 F11819.709
G1 X94.891 Y82.049 F30000
G1 Z.1 F600
G1 E.4 F1800
M204 S500
G1 F2400
G1 X94.926 Y82.026 E.00039
G1 X94.961 Y82.049 E.00039
G1 X94.926 Y82.072 E.00039
G1 X94.916 Y82.065 E.00011
M204 S10000
;WIPE_START
G1 F24000
G1 X94.891 Y82.049 E-.00564
G1 X94.926 Y82.026 E-.00784
G1 X94.961 Y82.049 E-.00768
G1 X94.926 Y82.072 E-.00751
G1 X94.916 Y82.065 E-.00214
;WIPE_END
G1 E-.36919 F1800
G1 X100.343 Y76.698 Z.5 F11819.707
G1 X101.169 Y75.882 F30000
G1 Z.1 F600
G1 E.4 F1800
M204 S500
G1 F2400
G1 X101.085 Y76.01 E.00143
G1 X101.093 Y75.771 E.00223
G1 X101.152 Y75.857 E.00097
M204 S10000
;WIPE_START
G1 F24000
G1 X101.169 Y75.882 E-.00574
G1 X101.085 Y76.01 E-.02865
G1 X101.093 Y75.771 E-.04132
G1 X101.152 Y75.857 E-.01587
;WIPE_END
G1 E-.30842 F1800
G1 X97.138 Y71.929 Z.394 F11819.737
G1 Z.1 F600
G1 E.4 F1800
M204 S500
G1 F2400
G1 X97.161 Y71.945 E.00026
G1 X97.752 Y71.968 E.00551
G1 X97.939 Y71.929 E.00178
G1 X97.962 Y71.945 E.00026
G1 X98.359 Y71.961 E.0037
G1 X98.374 Y72.357 E.00369
G1 X98.39 Y72.381 E.00027
G1 X98.351 Y72.567 E.00177
G1 X98.374 Y73.151 E.00544
G1 X98.391 Y73.176 E.00028
G1 X98.351 Y73.369 E.00184
G1 X98.374 Y73.957 E.00548
G1 X98.39 Y73.98 E.00026
G1 X98.351 Y74.166 E.00177
G1 X98.374 Y74.756 E.0055
G1 X98.39 Y74.779 E.00026
G1 X98.351 Y74.969 E.00181
G1 X98.374 Y75.556 E.00547
G1 X98.39 Y75.579 E.00026
G1 X98.351 Y75.77 E.00182
G1 X98.374 Y76.357 E.00547
G1 X98.39 Y76.381 E.00027
G1 X98.351 Y76.567 E.00177
G1 X98.374 Y77.151 E.00544
G1 X98.391 Y77.177 E.00029
G1 X98.351 Y77.368 E.00182
G1 X98.358 Y77.557 E.00176
G1 X98.169 Y77.549 E.00176
G1 X97.982 Y77.587 E.00178
G1 X97.959 Y77.572 E.00026
G1 X97.372 Y77.549 E.00547
G1 X97.178 Y77.588 E.00184
G1 X97.154 Y77.572 E.00027
G1 X96.57 Y77.549 E.00544
G1 X96.382 Y77.587 E.00179
G1 X96.359 Y77.572 E.00026
G1 X95.773 Y77.549 E.00546
G1 X95.581 Y77.587 E.00182
G1 X95.559 Y77.572 E.00025
G1 X94.97 Y77.549 E.00549
G1 X94.783 Y77.587 E.00178
G1 X94.76 Y77.572 E.00026
G1 X94.173 Y77.549 E.00547
G1 X93.981 Y77.587 E.00182
G1 X93.959 Y77.572 E.00025
G1 X93.373 Y77.549 E.00546
G1 X93.181 Y77.587 E.00182
G1 X92.763 Y77.555 E.0039
G1 X92.77 Y77.37 E.00172
G1 X92.731 Y77.177 E.00183
G1 X92.747 Y77.152 E.00028
G1 X92.77 Y76.569 E.00543
G1 X92.728 Y76.361 E.00198
G1 X92.77 Y76.146 E.00204
G1 X92.747 Y75.558 E.00548
G1 X92.77 Y74.971 E.00547
G1 X92.732 Y74.78 E.00181
G1 X92.747 Y74.757 E.00026
G1 X92.77 Y74.168 E.00549
G1 X92.732 Y73.981 E.00178
G1 X92.747 Y73.958 E.00026
G1 X92.77 Y73.371 E.00547
G1 X92.732 Y73.177 E.00184
G1 X92.747 Y73.153 E.00026
G1 X92.77 Y72.569 E.00544
G1 X92.732 Y72.381 E.00179
G1 X92.747 Y72.359 E.00025
G1 X92.762 Y71.961 E.00371
G1 X92.95 Y71.968 E.00175
G1 X93.138 Y71.93 E.00179
G1 X93.161 Y71.945 E.00026
G1 X93.753 Y71.968 E.00552
G1 X93.938 Y71.929 E.00176
G1 X93.962 Y71.945 E.00027
G1 X94.549 Y71.968 E.00547
G1 X94.743 Y71.929 E.00184
G1 X94.767 Y71.945 E.00027
G1 X95.351 Y71.968 E.00544
G1 X95.538 Y71.929 E.00178
G1 X95.561 Y71.945 E.00026
G1 X96.149 Y71.968 E.00548
G1 X96.339 Y71.929 E.00181
G1 X96.362 Y71.945 E.00026
G1 X96.951 Y71.968 E.00549
G1 X97.108 Y71.935 E.00149
M204 S10000
;WIPE_START
G1 F24000
G1 X97.138 Y71.929 E-.00581
G1 X97.161 Y71.945 E-.00524
G1 X97.752 Y71.968 E-.10911
G1 X97.939 Y71.929 E-.02482
G1 X97.962 Y71.945 E-.00329
G1 X98.359 Y71.961 E-.04604
G1 X98.374 Y72.357 E-.03679
G1 X98.39 Y72.381 E-.00215
G1 X98.351 Y72.567 E-.01394
G1 X98.356 Y72.685 E-.13281
;WIPE_END
G1 E-.02 F1800
G1 X95.331 Y68.984 Z.351 F11819.72
G1 Z.1 F600
G1 E.4 F1800
M204 S500
G1 F2400
G1 X95.399 Y69.086 E.00114
G1 X95.646 Y69.248 E.00275
G1 X95.579 Y69.259 E.00063
G1 X95.558 Y69.245 E.00024
G1 X95.046 Y69.228 E.00477
G1 X95.26 Y69.088 E.00238
G1 X95.314 Y69.008 E.0009
M204 S10000
;WIPE_START
G1 F24000
G1 X95.331 Y68.984 E-.00559
G1 X95.399 Y69.086 E-.02295
G1 X95.646 Y69.248 E-.05191
G1 X95.579 Y69.259 E-.01017
G1 X95.558 Y69.245 E-.00365
G1 X95.046 Y69.228 E-.07319
G1 X95.26 Y69.088 E-.02718
G1 X95.314 Y69.008 E-.00895
;WIPE_END
G1 E-.19641 F1800
G1 X98.974 Y62.773 Z.479 F11819.715
G1 Z.1 F600
G1 E.4 F1800
M204 S500
G1 F2400
G1 X98.888 Y62.881 E.00129
G1 X98.802 Y62.773 E.00129
G1 X98.887 Y62.667 E.00127
G1 X98.944 Y62.753 E.00096
G1 X98.949 Y62.756 E.00005
M204 S10000
;WIPE_START
G1 F24000
G1 X98.974 Y62.773 E-.00574
G1 X98.888 Y62.881 E-.02583
G1 X98.802 Y62.773 E-.02405
G1 X98.887 Y62.667 E-.02204
G1 X98.944 Y62.753 E-.0156
G1 X98.949 Y62.756 E-.00084
;WIPE_END
G1 E-.3059 F1800
G1 X97.476 Y70.245 Z.5 F11819.71
G1 X97.097 Y72.171 F30000
G1 Z.1 F600
G1 E.4 F1800
M204 S500
G1 F2400
G1 X97.771 Y72.198 E.00628
G1 X97.898 Y72.171 E.00121
G1 X98.139 Y72.181 E.00225
G1 X98.148 Y72.421 E.00224
G1 X98.121 Y72.548 E.00121
G1 X98.148 Y73.22 E.00626
G1 X98.122 Y73.35 E.00123
G1 X98.148 Y74.02 E.00624
G1 X98.121 Y74.147 E.00121
G1 X98.148 Y74.82 E.00627
G1 X98.122 Y74.951 E.00124
G1 X98.148 Y75.621 E.00624
G1 X98.122 Y75.752 E.00124
G1 X98.148 Y76.421 E.00623
G1 X98.121 Y76.547 E.0012
G1 X98.148 Y77.221 E.00628
G1 X98.127 Y77.325 E.00099
G1 X98.024 Y77.346 E.00098
G1 X97.354 Y77.32 E.00624
G1 X97.224 Y77.346 E.00123
G1 X96.552 Y77.32 E.00626
G1 X96.425 Y77.346 E.00121
G1 X95.755 Y77.32 E.00624
G1 X95.625 Y77.346 E.00123
G1 X94.951 Y77.32 E.00628
G1 X94.825 Y77.346 E.0012
G1 X94.155 Y77.32 E.00624
G1 X94.025 Y77.346 E.00123
G1 X93.355 Y77.32 E.00624
G1 X93.18 Y77.354 E.00166
G1 X92.996 Y77.334 E.00172
G1 X92.973 Y77.224 E.00105
G1 X92.999 Y76.55 E.00628
G1 X92.961 Y76.36 E.0018
G1 X92.999 Y76.164 E.00186
G1 X92.976 Y75.558 E.00565
G1 X92.999 Y74.954 E.00563
G1 X92.974 Y74.823 E.00124
G1 X92.999 Y74.149 E.00628
G1 X92.974 Y74.023 E.0012
G1 X92.999 Y73.353 E.00624
G1 X92.974 Y73.223 E.00123
G1 X92.999 Y72.551 E.00626
G1 X92.974 Y72.424 E.00121
G1 X92.982 Y72.195 E.00213
G1 X93.098 Y72.171 E.0011
G1 X93.772 Y72.198 E.00628
G1 X93.898 Y72.171 E.0012
G1 X94.567 Y72.198 E.00623
G1 X94.698 Y72.171 E.00125
G1 X95.371 Y72.198 E.00627
G1 X95.498 Y72.171 E.00121
G1 X96.168 Y72.198 E.00624
G1 X96.298 Y72.171 E.00124
G1 X96.97 Y72.198 E.00626
G1 X97.068 Y72.177 E.00093
M204 S10000
;WIPE_START
G1 F24000
G1 X97.097 Y72.171 E-.00563
G1 X97.771 Y72.198 E-.12626
G1 X97.898 Y72.171 E-.01611
G1 X98.139 Y72.181 E-.02798
G1 X98.148 Y72.421 E-.0245
G1 X98.121 Y72.548 E-.01165
G1 X98.143 Y73.102 E-.16787
;WIPE_END
G1 E-.02 F1800
G1 X99.496 Y70.823 Z.239 F11819.779
G1 Z.1 F600
G1 E.4 F1800
M204 S500
G1 F2400
G1 X100.41 Y70.823 E.00851
G1 X100.712 Y70.885 E.00287
G1 X101.04 Y71.104 E.00367
G1 X101.26 Y71.433 E.00369
G1 X101.323 Y71.754 E.00305
G1 X101.298 Y72.424 E.00624
G1 X101.323 Y72.551 E.00121
G1 X101.297 Y73.223 E.00626
G1 X101.322 Y73.373 E.00142
G1 X101.406 Y73.316 E.00095
G1 X101.755 Y73.247 E.00331
G1 X102.422 Y73.247 E.00621
G1 X102.772 Y73.315 E.00332
G1 X103.04 Y73.496 E.00301
G1 X103.306 Y73.316 E.00299
G1 X103.654 Y73.247 E.0033
G1 X104.323 Y73.247 E.00623
G1 X104.673 Y73.315 E.00332
G1 X105.04 Y73.564 E.00413
G1 X105.282 Y73.929 E.00408
G1 X105.35 Y74.273 E.00327
G1 X105.35 Y75.393 E.01043
G1 X105.282 Y75.737 E.00327
G1 X105.21 Y75.846 E.00122
G1 X105.282 Y75.955 E.00122
G1 X105.35 Y76.298 E.00326
G1 X105.35 Y77.367 E.00995
G1 X105.282 Y77.711 E.00327
G1 X105.041 Y78.075 E.00406
G1 X104.673 Y78.326 E.00415
G1 X104.321 Y78.394 E.00334
G1 X103.631 Y78.394 E.00642
G1 X103.281 Y78.326 E.00332
G1 X103.064 Y78.178 E.00245
G1 X102.848 Y78.326 E.00244
G1 X102.498 Y78.394 E.00332
G1 X101.808 Y78.394 E.00642
G1 X101.456 Y78.326 E.00334
G1 X101.21 Y78.159 E.00277
G1 X101.04 Y78.412 E.00284
G1 X100.714 Y78.632 E.00366
G1 X100.409 Y78.694 E.0029
G1 X99.496 Y78.694 E.0085
G1 X99.496 Y79.608 E.00851
G1 X99.436 Y79.906 E.00283
G1 X99.221 Y80.235 E.00366
G1 X98.819 Y80.507 E.00452
G1 X97.502 Y80.507 E.01226
G1 X97.553 Y80.767 E.00247
G1 X97.553 Y81.43 E.00617
G1 X97.485 Y81.781 E.00333
G1 X97.304 Y82.049 E.00301
G1 X97.484 Y82.315 E.00299
G1 X97.553 Y82.664 E.00331
G1 X97.553 Y83.331 E.00621
G1 X97.485 Y83.682 E.00333
G1 X97.235 Y84.051 E.00415
G1 X96.876 Y84.287 E.004
G1 X96.534 Y84.361 E.00326
G1 X95.399 Y84.361 E.01057
G1 X95.058 Y84.286 E.00325
G1 X94.926 Y84.2 E.00147
G1 X94.792 Y84.287 E.00149
G1 X94.449 Y84.361 E.00327
G1 X93.318 Y84.361 E.01053
G1 X92.975 Y84.287 E.00327
G1 X92.611 Y84.048 E.00405
G1 X92.365 Y83.676 E.00415
G1 X92.299 Y83.329 E.00329
G1 X92.299 Y82.666 E.00617
G1 X92.365 Y82.321 E.00327
G1 X92.546 Y82.049 E.00304
G1 X92.365 Y81.775 E.00306
G1 X92.299 Y81.429 E.00328
G1 X92.299 Y80.768 E.00615
G1 X92.353 Y80.485 E.00268
G1 X92.246 Y80.466 E.00101
G1 X91.895 Y80.235 E.00391
G1 X91.684 Y79.899 E.00369
G1 X91.625 Y79.608 E.00276
G1 X91.625 Y78.694 E.00851
G1 X90.714 Y78.694 E.00848
G1 X90.407 Y78.634 E.00291
G1 X90.079 Y78.412 E.00369
G1 X89.822 Y78.03 E.00429
G1 X89.796 Y77.352 E.00632
G1 X89.822 Y77.223 E.00123
G1 X89.796 Y76.55 E.00627
G1 X89.821 Y76.424 E.0012
G1 X89.796 Y75.755 E.00623
G1 X89.821 Y75.624 E.00124
G1 X89.796 Y74.954 E.00624
G1 X89.821 Y74.823 E.00124
G1 X89.796 Y74.149 E.00628
G1 X89.821 Y74.023 E.0012
G1 X89.796 Y73.353 E.00624
G1 X89.821 Y73.223 E.00123
G1 X89.796 Y72.551 E.00626
G1 X89.821 Y72.424 E.00121
G1 X89.796 Y71.754 E.00624
G1 X89.859 Y71.433 E.00305
G1 X90.079 Y71.104 E.00369
G1 X90.409 Y70.883 E.0037
G1 X90.714 Y70.823 E.00289
G1 X91.625 Y70.823 E.00848
G1 X91.625 Y69.91 E.0085
G1 X91.684 Y69.619 E.00276
G1 X91.895 Y69.283 E.00369
G1 X92.246 Y69.051 E.00392
G1 X92.561 Y68.997 E.00298
G1 X93.178 Y69.017 E.00575
G1 X93.088 Y68.88 E.00153
G1 X93.021 Y68.536 E.00326
G1 X93.021 Y67.419 E.0104
G1 X93.088 Y67.075 E.00326
G1 X93.329 Y66.71 E.00407
G1 X93.698 Y66.458 E.00416
G1 X94.051 Y66.391 E.00335
G1 X94.714 Y66.391 E.00617
G1 X95.065 Y66.459 E.00333
G1 X95.331 Y66.641 E.003
G1 X95.598 Y66.459 E.00301
G1 X95.951 Y66.391 E.00335
G1 X96.615 Y66.391 E.00618
G1 X96.965 Y66.459 E.00332
G1 X97.327 Y66.707 E.00409
G1 X97.574 Y67.067 E.00407
G1 X97.643 Y67.418 E.00333
G1 X97.643 Y68.537 E.01042
G1 X97.574 Y68.888 E.00333
G1 X97.496 Y69.001 E.00128
G1 X98.032 Y69.019 E.00499
G1 X98.16 Y68.997 E.00121
G1 X98.831 Y69.018 E.00625
G1 X99.221 Y69.283 E.00439
G1 X99.436 Y69.612 E.00366
G1 X99.496 Y69.91 E.00283
G1 X99.496 Y70.793 E.00822
M204 S10000
G1 X99.496 Y70.793 F30000
G1 X99.267 Y71.052
M204 S500
G1 F2400
G1 X100.387 Y71.052 E.01043
G1 X100.623 Y71.1 E.00224
G1 X100.875 Y71.269 E.00283
G1 X101.045 Y71.522 E.00284
G1 X101.094 Y71.772 E.00237
G1 X101.071 Y72.357 E.00545
G1 X101.056 Y72.38 E.00026
G1 X101.094 Y72.569 E.0018
G1 X101.072 Y73.151 E.00542
G1 X101.055 Y73.176 E.00028
G1 X101.094 Y73.371 E.00185
G1 X101.073 Y73.926 E.00517
G1 X101.208 Y73.726 E.00225
G1 X101.496 Y73.531 E.00324
G1 X101.777 Y73.475 E.00267
G1 X102.4 Y73.475 E.0058
G1 X102.683 Y73.53 E.00268
G1 X102.976 Y73.729 E.0033
G1 X103.04 Y73.827 E.00109
G1 X103.109 Y73.725 E.00115
G1 X103.396 Y73.531 E.00323
G1 X103.677 Y73.475 E.00267
G1 X104.3 Y73.475 E.0058
G1 X104.583 Y73.531 E.00269
G1 X104.875 Y73.728 E.00328
G1 X105.066 Y74.018 E.00323
G1 X105.121 Y74.295 E.00263
G1 X105.121 Y75.37 E.01001
G1 X105.066 Y75.648 E.00264
G1 X104.936 Y75.845 E.0022
G1 X105.066 Y76.044 E.00221
G1 X105.121 Y76.32 E.00262
G1 X105.121 Y77.345 E.00954
G1 X105.066 Y77.623 E.00264
